public/img/logo/nor.svg

<?xml version="1.0" encoding="UTF-8" standalone="no"?>
<svg
   xmlns:dc="http://purl.org/dc/elements/1.1/"
   xmlns:cc="http://creativecommons.org/ns#"
   xmlns:rdf="http://www.w3.org/1999/02/22-rdf-syntax-ns#"
   xmlns:svg="http://www.w3.org/2000/svg"
   xmlns="http://www.w3.org/2000/svg"
   xmlns:sodipodi="http://sodipodi.sourceforge.net/DTD/sodipodi-0.dtd"
   xmlns:inkscape="http://www.inkscape.org/namespaces/inkscape"
   width="705.467mm"
   height="705.467mm"
   viewBox="0 0 2000 2000"
   version="1.1"
   id="svg4"
   sodipodi:docname="nor.svg"
   inkscape:version="0.92.5 (2060ec1f9f, 2020-04-08)">
  <metadata
     id="metadata10">
    <rdf:RDF>
      <cc:Work
         rdf:about="">
        <dc:format>image/svg+xml</dc:format>
        <dc:type
           rdf:resource="http://purl.org/dc/dcmitype/StillImage" />
      </cc:Work>
    </rdf:RDF>
  </metadata>
  <defs
     id="defs8" />
  <sodipodi:namedview
     pagecolor="#ffffff"
     bordercolor="#666666"
     borderopacity="1"
     objecttolerance="10"
     gridtolerance="10"
     guidetolerance="10"
     inkscape:pageopacity="0"
     inkscape:pageshadow="2"
     inkscape:window-width="3768"
     inkscape:window-height="2096"
     id="namedview6"
     showgrid="false"
     inkscape:zoom="0.50069446"
     inkscape:cx="-284.65192"
     inkscape:cy="882.10722"
     inkscape:window-x="72"
     inkscape:window-y="27"
     inkscape:window-maximized="1"
     inkscape:current-layer="svg4" />
  <path
     id="Selection"
     d="m 974.55948,103.57943 c -5.69671,0.99525 -11.49321,0.69936 -17.23526,0.70833 0,0 -17.23522,1.71254 -17.23522,1.71254 0,0 -30.842,2.02636 -30.842,2.02636 0,0 -8.16405,1.48838 -8.16405,1.48838 0,0 -21.77082,2.21466 -21.77082,2.21466 -54.64474,7.95301 -103.29344,19.26836 -156.02418,35.55994 0,0 -16.32812,5.69353 -16.32812,5.69353 -43.03363,14.88389 -84.95153,32.34107 -125.18218,53.62682 0,0 -23.58505,12.32853 -23.58505,12.32853 -42.81594,24.01147 -84.02628,51.71703 -122.46085,82.11244 -107.93788,85.34923 -195.59263,196.80802 -253.89306,320.58637 -28.90983,61.40052 -51.36099,127.36484 -65.30337,193.66986 0,0 -9.4431,54.6938 -9.4431,54.6938 0,0 -3.51961,27.79523 -3.51961,27.79523 0,0 -1.50582,8.06957 -1.50582,8.06957 0,0 -2.05008,30.48507 -2.05008,30.48507 0,0 -1.732595,15.24253 -1.732595,15.24253 0,0 0,12.55268 0,12.55268 0,0 -0.907117,13.44929 -0.907117,13.44929 0,0 0,44.83094 0,44.83094 0,0 0.943401,13.4494 0.943401,13.4494 0,0 0,15.2425 0,15.2425 0,0 1.696311,12.5525 1.696311,12.5525 0,0 2.05008,30.4853 2.05008,30.4853 0,0 1.50582,8.0695 1.50582,8.0695 3.03884,27.6787 7.22065,55.2049 12.96271,82.4891 42.21724,200.7262 157.19435,386.1561 319.19643,514.2562 82.49325,65.238 171.63567,113.6106 271.22808,148.0678 55.97823,19.3759 113.73438,32.7176 172.3523,41.2534 0,0 21.77082,2.2146 21.77082,2.2146 0,0 8.16405,1.4884 8.16405,1.4884 0,0 22.67794,1.9816 22.67794,1.9816 0,0 9.07117,0 9.07117,0 0,0 14.51388,1.7573 14.51388,1.7573 0,0 12.69961,0 12.69961,0 0,0 13.60682,0.8967 13.60682,0.8967 0,0 45.35588,0 45.35588,0 0,0 15.4211,-0.9684 15.4211,-0.9684 0,0 14.5139,0 14.5139,0 0,0 11.7923,-1.6408 11.7923,-1.6408 0,0 30.842,-2.0264 30.842,-2.0264 0,0 8.1641,-1.4884 8.1641,-1.4884 0,0 21.7708,-2.2146 21.7708,-2.2146 44.9749,-6.5453 89.7412,-15.7357 133.3462,-28.6023 113.172,-33.3989 217.9895,-87.77 310.2342,-160.7189 0,0 44.4489,-37.9988 44.4489,-37.9988 0,0 31.7399,-29.7409 31.7399,-29.7409 100.6356,-101.7931 172.0075,-217.493 217.4632,-352.3715 16.9449,-50.3093 28.4653,-102.7346 36.2666,-155.1152 0,0 2.2405,-21.5189 2.2405,-21.5189 0,0 1.5058,-8.0695 1.5058,-8.0695 0,0 2.0502,-30.4853 2.0502,-30.4853 0,0 1.6601,-11.6559 1.6601,-11.6559 0,0 0,-14.3459 0,-14.3459 0,0 0.9795,-15.2426 0.9795,-15.2426 0,0 0,-44.83094 0,-44.83094 0,0 -0.9071,-14.34591 -0.9071,-14.34591 0,0 0,-11.65606 0,-11.65606 0,0 -1.7779,-14.34592 -1.7779,-14.34592 0,0 0,-8.9662 0,-8.9662 0,0 -2.0048,-22.41548 -2.0048,-22.41548 0,0 -1.5058,-8.06957 -1.5058,-8.06957 0,0 -2.2405,-21.51888 -2.2405,-21.51888 -5.5878,-37.52355 -13.1532,-74.56291 -23.2404,-111.18085 -41.3645,-150.21069 -120.5468,-286.38034 -231.3874,-397.20253 0,0 -30.8419,-28.84426 -30.8419,-28.84426 0,0 -44.4489,-37.99874 -44.4489,-37.99874 -98.3951,-77.80867 -209.6076,-133.66807 -331.0979,-166.34986 -37.0466,-9.97041 -74.5196,-17.44822 -112.4825,-22.9714 0,0 -21.7708,-2.21466 -21.7708,-2.21466 0,0 -8.1641,-1.48838 -8.1641,-1.48838 0,0 -30.842,-2.02636 -30.842,-2.02636 0,0 -11.7923,-1.64082 -11.7923,-1.64082 0,0 -15.4211,0 -15.4211,0 0,0 -14.5139,-0.78005 -14.5139,-0.78005 0,0 -52.61282,0 -52.61282,0 z"
     inkscape:connector-curvature="0"
     style="fill:#ffffff;stroke:none;stroke-width:0" />
  <g
     inkscape:groupmode="layer"
     id="layer1"
     inkscape:label="Layer 1"
     style="display:inline">
    <path
       style="fill:#480027;stroke:#480027;stroke-width:1"
       id="Auswahl"
       d="m 968,0.21 c -5.29,0.96 -9.71,0.78 -15,0.79 0,0 -13,0.96 -13,0.96 0,0 -53,4.32 -53,4.32 C 818.64,14.72 757.72,27.34 692,48.34 433.88,130.84 213.61,322.84 97.78,568 55.21,658.11 26.87,749.52 11.58,848 6.85,878.47 3.3,909.23 1.96,940 c 0,0 -1,11 -1,11 0,0 0,13 0,13 0,0 -0.96,12 -0.96,12 0,0 0,48 0,48 0,0 0.96,12 0.96,12 0,0 0,12 0,12 0,0 1,12 1,12 1.12,25.74 3.95,51.42 7.32,77 21.27,161.62 86.95,321.51 182.87,453 53.67,73.57 117.33,139.47 188.85,195.79 86.36,68 181.52,120.08 285,156.9 66.47,23.65 138.93,41.09 209,49.46 0,0 65,5.89 65,5.89 0,0 11,1 11,1 0,0 13,0 13,0 0,0 12,0.96 12,0.96 0,0 48,0 48,0 0,0 17,-1 17,-1 0,0 57,-3.83 57,-3.83 71.98,-7.2 141.06,-21.48 210,-43.51 141.73,-45.3 274.57,-124.87 382,-227.62 0,0 25.96,-25.04 25.96,-25.04 103.63,-108.34 180.51,-231.28 229.7,-373 22.73,-65.52 37.66,-133.31 46.62,-202 0,0 5.76,-64 5.76,-64 0,0 0.96,-19 0.96,-19 0,0 1,-17 1,-17 0,0 0,-48 0,-48 0,0 -0.96,-12 -0.96,-12 0,0 0,-13 0,-13 0,0 -1,-11 -1,-11 0,0 -3.88,-48 -3.88,-48 -5.56,-52.03 -15.33,-103.49 -29.01,-154 -43.33,-160.01 -126.49,-308.17 -241.11,-428 0,0 -9.05,-10 -9.05,-10 0,0 -24.99,-24.04 -24.99,-24.04 C 1570.17,161.34 1422.01,78.18 1262,34.85 1211.49,21.17 1160.03,11.4 1108,5.84 c 0,0 -48,-3.88 -48,-3.88 0,0 -11,-1 -11,-1 0,0 -13,0 -13,0 0,0 -12,-0.75 -12,-0.75 0,0 -56,0 -56,0 z M 528,455.07 c 0,0 39,0 39,0 0,0 74,0 74,0 0,0 222,0 222,0 2.35,-0.07 5.63,-0.29 7.67,0.95 2.25,1.36 3.89,4.73 5.18,6.98 0,0 9.29,16 9.29,16 0,0 44.44,77 44.44,77 0,0 188,326 188,326 0,0 149.57,259 149.57,259 0,0 20.84,36 20.84,36 4.24,7.25 8.17,15.47 13.48,22 11.4,14.03 27.52,21.79 45.53,22 9.68,0.11 20.56,0.96 23.47,-11 0.61,-2.5 0.53,-5.43 0.53,-8 0,0 0,-121 0,-121 0,0 0,-461 0,-461 -0.04,-22.72 -9.76,-37.71 -34,-38 -5.65,-0.06 -12.22,-0.36 -16.79,3.57 -4.24,3.64 -5.14,9.16 -5.21,14.43 0,0 0,34 0,34 0,0 0,171 0,171 -0.03,20.08 -12.91,32.76 -33,33 0,0 -61,0 -61,0 -4.19,-0.01 -6.9,0.06 -11,-1.22 -26.76,-8.33 -22,-37.98 -22,-59.78 0,0 0,-20 0,-20 0,0 0,-270 0,-270 0.01,-4.87 0.01,-7.22 1.44,-12 6.18,-20.65 21.18,-20 38.56,-20 0,0 25,0 25,0 0,0 212,0 212,0 21.09,0.03 32.97,13.24 33,34 0,0 0,166 0,166 0,0 0,661 0,661 -0.03,22.38 -16.07,32.75 -37,33 0,0 -78,0 -78,0 0,0 -136,0 -136,0 -1.88,0 -5.11,0.12 -6.79,-0.6 -3.36,-1.44 -9.65,-13.71 -11.79,-17.4 0,0 -31.62,-55 -31.62,-55 0,0 -61.67,-107 -61.67,-107 0,0 -74.55,-129 -74.55,-129 0,0 -202,-350 -202,-350 0,0 -30.13,-52 -30.13,-52 -5.74,-9.69 -13.79,-25.88 -20.75,-34 -13.16,-15.36 -32.91,-21.97 -52.7,-22 0,0 -223,0 -223,0 -4.49,-0.01 -6.62,0.1 -11,-1.36 -27.06,-9.02 -22,-45.15 -22,-67.64 0,0 0,-18 0,-18 0.03,-7.12 1.04,-17.79 4.53,-24 5.51,-9.81 13.86,-13.7 24.47,-15.93 z m 3,193.03 c 0,0 74,0 74,0 0,0 143,0 143,0 2.38,-0.1 5.71,-0.3 7.79,0.92 2.49,1.47 4.22,5.48 5.63,7.98 0,0 11.58,20 11.58,20 0,0 55.3,96 55.3,96 0,0 27.28,47 27.28,47 0,0 41,71 41,71 0,0 157.42,273 157.42,273 0,0 108.58,188 108.58,188 5.08,8.98 21.1,37.75 26.6,44 13.07,14.84 32.34,21.77 51.82,22 0,0 225,0 225,0 20.7,0.03 31.97,14 32,34 0,0 0,61 0,61 -0.03,20.51 -14.16,31.91 -34,32 0,0 -50,0 -50,0 0,0 -280,0 -280,0 -9.17,-0.02 -8.38,0.05 -16.42,-14 0,0 -14.98,-26 -14.98,-26 0,0 -75.02,-130 -75.02,-130 0,0 -281,-487 -281,-487 0,0 -37.57,-65 -37.57,-65 -8.57,-14.59 -14.42,-27.74 -29.01,-37.78 -13.12,-9.03 -22.87,-9.42 -38,-9.22 -5.94,0.08 -9.91,1.52 -13.07,7 -2.06,3.59 -1.92,8 -1.93,12 0,0 0,583 0,583 0.03,20.03 8.44,37.73 31,38 7.35,0.08 16.35,1.4 21.49,-5.1 4.97,-6.29 3.51,-21.83 3.51,-29.9 0,0 0,-72 0,-72 0,0 0,-100 0,-100 0,-14.42 -2.5,-30.12 10.04,-40.48 11.04,-9.13 22.59,-8.52 35.96,-8.52 0,0 47,0 47,0 4.34,0.05 7.82,0.56 12,1.75 27.1,7.64 22,39.61 22,61.25 0,0 0,18 0,18 0,0 0,270 0,270 -0.01,4.64 -0.13,8.52 -1.6,13 -6.62,20.19 -21.86,20 -39.4,20 0,0 -23,0 -23,0 0,0 -209,0 -209,0 -5.8,-0.01 -12.58,-0.58 -18,-2.76 -16.02,-6.44 -19.98,-23.68 -20,-39.24 0,0 0,-145 0,-145 0,0 0,-541 0,-541 0,0 0,-96 0,-96 0,-11.78 -0.9,-40.01 2.22,-50 4.57,-14.63 15.92,-19.42 29.78,-21.9 z"
       inkscape:connector-curvature="0" />
  </g>
  <g
     inkscape:groupmode="layer"
     id="layer2"
     inkscape:label="Layer 2" />
</svg>

<?xml version="1.0" encoding="UTF-8" standalone="no"?>
<!DOCTYPE svg PUBLIC "-//W3C//DTD SVG 20010904//EN"
              "http://www.w3.org/TR/2001/REC-SVG-20010904/DTD/svg10.dtd">

<svg xmlns="http://www.w3.org/2000/svg"
     width="705.467mm" height="705.467mm"
     viewBox="0 0 2000 2000">
  <path id="Selection"
        fill="white" stroke="none" stroke-width="1"
        d="M 967.00,0.21
           C 960.72,1.32 954.33,0.99 948.00,1.00
             948.00,1.00 929.00,2.91 929.00,2.91
             929.00,2.91 895.00,5.17 895.00,5.17
             895.00,5.17 886.00,6.83 886.00,6.83
             886.00,6.83 862.00,9.30 862.00,9.30
             801.76,18.17 748.13,30.79 690.00,48.96
             690.00,48.96 672.00,55.31 672.00,55.31
             624.56,71.91 578.35,91.38 534.00,115.12
             534.00,115.12 508.00,128.87 508.00,128.87
             460.80,155.65 415.37,186.55 373.00,220.45
             254.01,315.64 157.38,439.95 93.11,578.00
             61.24,646.48 36.49,720.05 21.12,794.00
             21.12,794.00 10.71,855.00 10.71,855.00
             10.71,855.00 6.83,886.00 6.83,886.00
             6.83,886.00 5.17,895.00 5.17,895.00
             5.17,895.00 2.91,929.00 2.91,929.00
             2.91,929.00 1.00,946.00 1.00,946.00
             1.00,946.00 1.00,960.00 1.00,960.00
             1.00,960.00 0.00,975.00 0.00,975.00
             0.00,975.00 0.00,1025.00 0.00,1025.00
             0.00,1025.00 1.04,1040.00 1.04,1040.00
             1.04,1040.00 1.04,1057.00 1.04,1057.00
             1.04,1057.00 2.91,1071.00 2.91,1071.00
             2.91,1071.00 5.17,1105.00 5.17,1105.00
             5.17,1105.00 6.83,1114.00 6.83,1114.00
             10.18,1144.87 14.79,1175.57 21.12,1206.00
             67.66,1429.87 194.41,1636.68 373.00,1779.55
             463.94,1852.31 562.21,1906.26 672.00,1944.69
             733.71,1966.30 797.38,1981.18 862.00,1990.70
             862.00,1990.70 886.00,1993.17 886.00,1993.17
             886.00,1993.17 895.00,1994.83 895.00,1994.83
             895.00,1994.83 920.00,1997.04 920.00,1997.04
             920.00,1997.04 930.00,1997.04 930.00,1997.04
             930.00,1997.04 946.00,1999.00 946.00,1999.00
             946.00,1999.00 960.00,1999.00 960.00,1999.00
             960.00,1999.00 975.00,2000.00 975.00,2000.00
             975.00,2000.00 1025.00,2000.00 1025.00,2000.00
             1025.00,2000.00 1042.00,1998.92 1042.00,1998.92
             1042.00,1998.92 1058.00,1998.92 1058.00,1998.92
             1058.00,1998.92 1071.00,1997.09 1071.00,1997.09
             1071.00,1997.09 1105.00,1994.83 1105.00,1994.83
             1105.00,1994.83 1114.00,1993.17 1114.00,1993.17
             1114.00,1993.17 1138.00,1990.70 1138.00,1990.70
             1187.58,1983.40 1236.93,1973.15 1285.00,1958.80
             1409.76,1921.55 1525.31,1860.91 1627.00,1779.55
             1627.00,1779.55 1676.00,1737.17 1676.00,1737.17
             1676.00,1737.17 1710.99,1704.00 1710.99,1704.00
             1821.93,1590.47 1900.61,1461.43 1950.72,1311.00
             1969.40,1254.89 1982.10,1196.42 1990.70,1138.00
             1990.70,1138.00 1993.17,1114.00 1993.17,1114.00
             1993.17,1114.00 1994.83,1105.00 1994.83,1105.00
             1994.83,1105.00 1997.09,1071.00 1997.09,1071.00
             1997.09,1071.00 1998.92,1058.00 1998.92,1058.00
             1998.92,1058.00 1998.92,1042.00 1998.92,1042.00
             1998.92,1042.00 2000.00,1025.00 2000.00,1025.00
             2000.00,1025.00 2000.00,975.00 2000.00,975.00
             2000.00,975.00 1999.00,959.00 1999.00,959.00
             1999.00,959.00 1999.00,946.00 1999.00,946.00
             1999.00,946.00 1997.04,930.00 1997.04,930.00
             1997.04,930.00 1997.04,920.00 1997.04,920.00
             1997.04,920.00 1994.83,895.00 1994.83,895.00
             1994.83,895.00 1993.17,886.00 1993.17,886.00
             1993.17,886.00 1990.70,862.00 1990.70,862.00
             1984.54,820.15 1976.20,778.84 1965.08,738.00
             1919.48,570.47 1832.19,418.60 1710.00,295.00
             1710.00,295.00 1676.00,262.83 1676.00,262.83
             1676.00,262.83 1627.00,220.45 1627.00,220.45
             1518.53,133.67 1395.93,71.37 1262.00,34.92
             1221.16,23.80 1179.85,15.46 1138.00,9.30
             1138.00,9.30 1114.00,6.83 1114.00,6.83
             1114.00,6.83 1105.00,5.17 1105.00,5.17
             1105.00,5.17 1071.00,2.91 1071.00,2.91
             1071.00,2.91 1058.00,1.08 1058.00,1.08
             1058.00,1.08 1041.00,1.08 1041.00,1.08
             1041.00,1.08 1025.00,0.21 1025.00,0.21
             1025.00,0.21 967.00,0.21 967.00,0.21 Z" />
  <path id="Auswahl"
        fill="#480027" stroke="#480027" stroke-width="1"
        d="M 968.00,0.21
           C 962.71,1.17 958.29,0.99 953.00,1.00
             953.00,1.00 940.00,1.96 940.00,1.96
             940.00,1.96 887.00,6.28 887.00,6.28
             818.64,14.72 757.72,27.34 692.00,48.34
             433.88,130.84 213.61,322.84 97.78,568.00
             55.21,658.11 26.87,749.52 11.58,848.00
             6.85,878.47 3.30,909.23 1.96,940.00
             1.96,940.00 0.96,951.00 0.96,951.00
             0.96,951.00 0.96,964.00 0.96,964.00
             0.96,964.00 0.00,976.00 0.00,976.00
             0.00,976.00 0.00,1024.00 0.00,1024.00
             0.00,1024.00 0.96,1036.00 0.96,1036.00
             0.96,1036.00 0.96,1048.00 0.96,1048.00
             0.96,1048.00 1.96,1060.00 1.96,1060.00
             3.08,1085.74 5.91,1111.42 9.28,1137.00
             30.55,1298.62 96.23,1458.51 192.15,1590.00
             245.82,1663.57 309.48,1729.47 381.00,1785.79
             467.36,1853.79 562.52,1905.87 666.00,1942.69
             732.47,1966.34 804.93,1983.78 875.00,1992.15
             875.00,1992.15 940.00,1998.04 940.00,1998.04
             940.00,1998.04 951.00,1999.04 951.00,1999.04
             951.00,1999.04 964.00,1999.04 964.00,1999.04
             964.00,1999.04 976.00,2000.00 976.00,2000.00
             976.00,2000.00 1024.00,2000.00 1024.00,2000.00
             1024.00,2000.00 1041.00,1999.00 1041.00,1999.00
             1041.00,1999.00 1098.00,1995.17 1098.00,1995.17
             1169.98,1987.97 1239.06,1973.69 1308.00,1951.66
             1449.73,1906.36 1582.57,1826.79 1690.00,1724.04
             1690.00,1724.04 1715.96,1699.00 1715.96,1699.00
             1819.59,1590.66 1896.47,1467.72 1945.66,1326.00
             1968.39,1260.48 1983.32,1192.69 1992.28,1124.00
             1992.28,1124.00 1998.04,1060.00 1998.04,1060.00
             1998.04,1060.00 1999.00,1041.00 1999.00,1041.00
             1999.00,1041.00 2000.00,1024.00 2000.00,1024.00
             2000.00,1024.00 2000.00,976.00 2000.00,976.00
             2000.00,976.00 1999.04,964.00 1999.04,964.00
             1999.04,964.00 1999.04,951.00 1999.04,951.00
             1999.04,951.00 1998.04,940.00 1998.04,940.00
             1998.04,940.00 1994.16,892.00 1994.16,892.00
             1988.60,839.97 1978.83,788.51 1965.15,738.00
             1921.82,577.99 1838.66,429.83 1724.04,310.00
             1724.04,310.00 1714.99,300.00 1714.99,300.00
             1714.99,300.00 1690.00,275.96 1690.00,275.96
             1570.17,161.34 1422.01,78.18 1262.00,34.85
             1211.49,21.17 1160.03,11.40 1108.00,5.84
             1108.00,5.84 1060.00,1.96 1060.00,1.96
             1060.00,1.96 1049.00,0.96 1049.00,0.96
             1049.00,0.96 1036.00,0.96 1036.00,0.96
             1036.00,0.96 1024.00,0.21 1024.00,0.21
             1024.00,0.21 968.00,0.21 968.00,0.21 Z
           M 528.00,455.07
           C 528.00,455.07 567.00,455.07 567.00,455.07
             567.00,455.07 641.00,455.07 641.00,455.07
             641.00,455.07 863.00,455.07 863.00,455.07
             865.35,455.00 868.63,454.78 870.67,456.02
             872.92,457.38 874.56,460.75 875.85,463.00
             875.85,463.00 885.14,479.00 885.14,479.00
             885.14,479.00 929.58,556.00 929.58,556.00
             929.58,556.00 1117.58,882.00 1117.58,882.00
             1117.58,882.00 1267.15,1141.00 1267.15,1141.00
             1267.15,1141.00 1287.99,1177.00 1287.99,1177.00
             1292.23,1184.25 1296.16,1192.47 1301.47,1199.00
             1312.87,1213.03 1328.99,1220.79 1347.00,1221.00
             1356.68,1221.11 1367.56,1221.96 1370.47,1210.00
             1371.08,1207.50 1371.00,1204.57 1371.00,1202.00
             1371.00,1202.00 1371.00,1081.00 1371.00,1081.00
             1371.00,1081.00 1371.00,620.00 1371.00,620.00
             1370.96,597.28 1361.24,582.29 1337.00,582.00
             1331.35,581.94 1324.78,581.64 1320.21,585.57
             1315.97,589.21 1315.07,594.73 1315.00,600.00
             1315.00,600.00 1315.00,634.00 1315.00,634.00
             1315.00,634.00 1315.00,805.00 1315.00,805.00
             1314.97,825.08 1302.09,837.76 1282.00,838.00
             1282.00,838.00 1221.00,838.00 1221.00,838.00
             1216.81,837.99 1214.10,838.06 1210.00,836.78
             1183.24,828.45 1188.00,798.80 1188.00,777.00
             1188.00,777.00 1188.00,757.00 1188.00,757.00
             1188.00,757.00 1188.00,487.00 1188.00,487.00
             1188.01,482.13 1188.01,479.78 1189.44,475.00
             1195.62,454.35 1210.62,455.00 1228.00,455.00
             1228.00,455.00 1253.00,455.00 1253.00,455.00
             1253.00,455.00 1465.00,455.00 1465.00,455.00
             1486.09,455.03 1497.97,468.24 1498.00,489.00
             1498.00,489.00 1498.00,655.00 1498.00,655.00
             1498.00,655.00 1498.00,1316.00 1498.00,1316.00
             1497.97,1338.38 1481.93,1348.75 1461.00,1349.00
             1461.00,1349.00 1383.00,1349.00 1383.00,1349.00
             1383.00,1349.00 1247.00,1349.00 1247.00,1349.00
             1245.12,1349.00 1241.89,1349.12 1240.21,1348.40
             1236.85,1346.96 1230.56,1334.69 1228.42,1331.00
             1228.42,1331.00 1196.80,1276.00 1196.80,1276.00
             1196.80,1276.00 1135.13,1169.00 1135.13,1169.00
             1135.13,1169.00 1060.58,1040.00 1060.58,1040.00
             1060.58,1040.00 858.58,690.00 858.58,690.00
             858.58,690.00 828.45,638.00 828.45,638.00
             822.71,628.31 814.66,612.12 807.70,604.00
             794.54,588.64 774.79,582.03 755.00,582.00
             755.00,582.00 532.00,582.00 532.00,582.00
             527.51,581.99 525.38,582.10 521.00,580.64
             493.94,571.62 499.00,535.49 499.00,513.00
             499.00,513.00 499.00,495.00 499.00,495.00
             499.03,487.88 500.04,477.21 503.53,471.00
             509.04,461.19 517.39,457.30 528.00,455.07 Z
           M 531.00,648.10
           C 531.00,648.10 605.00,648.10 605.00,648.10
             605.00,648.10 748.00,648.10 748.00,648.10
             750.38,648.00 753.71,647.80 755.79,649.02
             758.28,650.49 760.01,654.50 761.42,657.00
             761.42,657.00 773.00,677.00 773.00,677.00
             773.00,677.00 828.30,773.00 828.30,773.00
             828.30,773.00 855.58,820.00 855.58,820.00
             855.58,820.00 896.58,891.00 896.58,891.00
             896.58,891.00 1054.00,1164.00 1054.00,1164.00
             1054.00,1164.00 1162.58,1352.00 1162.58,1352.00
             1167.66,1360.98 1183.68,1389.75 1189.18,1396.00
             1202.25,1410.84 1221.52,1417.77 1241.00,1418.00
             1241.00,1418.00 1466.00,1418.00 1466.00,1418.00
             1486.70,1418.03 1497.97,1432.00 1498.00,1452.00
             1498.00,1452.00 1498.00,1513.00 1498.00,1513.00
             1497.97,1533.51 1483.84,1544.91 1464.00,1545.00
             1464.00,1545.00 1414.00,1545.00 1414.00,1545.00
             1414.00,1545.00 1134.00,1545.00 1134.00,1545.00
             1124.83,1544.98 1125.62,1545.05 1117.58,1531.00
             1117.58,1531.00 1102.60,1505.00 1102.60,1505.00
             1102.60,1505.00 1027.58,1375.00 1027.58,1375.00
             1027.58,1375.00 746.58,888.00 746.58,888.00
             746.58,888.00 709.01,823.00 709.01,823.00
             700.44,808.41 694.59,795.26 680.00,785.22
             666.88,776.19 657.13,775.80 642.00,776.00
             636.06,776.08 632.09,777.52 628.93,783.00
             626.87,786.59 627.01,791.00 627.00,795.00
             627.00,795.00 627.00,1378.00 627.00,1378.00
             627.03,1398.03 635.44,1415.73 658.00,1416.00
             665.35,1416.08 674.35,1417.40 679.49,1410.90
             684.46,1404.61 683.00,1389.07 683.00,1381.00
             683.00,1381.00 683.00,1309.00 683.00,1309.00
             683.00,1309.00 683.00,1209.00 683.00,1209.00
             683.00,1194.58 680.50,1178.88 693.04,1168.52
             704.08,1159.39 715.63,1160.00 729.00,1160.00
             729.00,1160.00 776.00,1160.00 776.00,1160.00
             780.34,1160.05 783.82,1160.56 788.00,1161.75
             815.10,1169.39 810.00,1201.36 810.00,1223.00
             810.00,1223.00 810.00,1241.00 810.00,1241.00
             810.00,1241.00 810.00,1511.00 810.00,1511.00
             809.99,1515.64 809.87,1519.52 808.40,1524.00
             801.78,1544.19 786.54,1544.00 769.00,1544.00
             769.00,1544.00 746.00,1544.00 746.00,1544.00
             746.00,1544.00 537.00,1544.00 537.00,1544.00
             531.20,1543.99 524.42,1543.42 519.00,1541.24
             502.98,1534.80 499.02,1517.56 499.00,1502.00
             499.00,1502.00 499.00,1357.00 499.00,1357.00
             499.00,1357.00 499.00,816.00 499.00,816.00
             499.00,816.00 499.00,720.00 499.00,720.00
             499.00,708.22 498.10,679.99 501.22,670.00
             505.79,655.37 517.14,650.58 531.00,648.10 Z" />
</svg>
